X: 36960
T: Shropshire Rounds, The
R: three-two
M: 3/2
K: Dmajor
|:d4c4B4|A2d2 G2B2 A2c2|ded2 cdc2 BcB2|1 A2D2 D2F2 E2D2:|2 A2c2 d2f2 e2f2||
|:g2e2 f2d2 g2e2|a2e2 e2g2 f2e2|f2A2 G2e2 c2A2|1 d4 d2f2 e2f2:|2 d4 d2c2 d2e2||
|:f2gf e2fe c2B2|c2e2 e2B2 c2e2|fga2 B2ed c2A2|1 d4 d2c2 d2e2:|2 d2D2 DEF2 E2D2||

